public/assets/img/google-white.svg

<svg width="20" height="20" viewBox="0 0 20 20" fill="none" xmlns="http://www.w3.org/2000/svg">
<path fill-rule="evenodd" clip-rule="evenodd" d="M0 10C0 4.47715 4.47715 0 10 0C15.5228 0 20 4.47715 20 10C20 15.5228 15.5228 20 10 20C4.47715 20 0 15.5228 0 10ZM9.98557 7.34222C10.7981 7.34222 11.3462 7.6937 11.6587 7.98741L12.8799 6.79333C12.1299 6.09519 11.1539 5.66667 9.98557 5.66667C8.2932 5.66667 6.83161 6.63926 6.12004 8.05482L7.51913 9.14296C7.87011 8.09815 8.8413 7.34222 9.98557 7.34222ZM14.1396 10.0963C14.1396 9.74 14.1107 9.48 14.0482 9.21037H9.98557V10.8185H12.3703C12.3222 11.2181 12.0626 11.82 11.4856 12.2244L12.8511 13.2837C13.6684 12.5278 14.1396 11.4156 14.1396 10.0963ZM7.52394 10.857C7.43259 10.5874 7.37971 10.2985 7.37971 10C7.37971 9.70148 7.43259 9.41259 7.51913 9.14296L6.12004 8.05482C5.82676 8.64222 5.65849 9.30185 5.65849 10C5.65849 10.6981 5.82677 11.3578 6.12005 11.9452L7.52394 10.857ZM9.98557 14.3333C11.1539 14.3333 12.1347 13.9481 12.8511 13.2837L11.4856 12.2244C11.1202 12.4796 10.6298 12.6578 9.98557 12.6578C8.8413 12.6578 7.87011 11.9019 7.52394 10.857L6.12485 11.9452C6.83642 13.3607 8.2932 14.3333 9.98557 14.3333Z" fill="white"/>
</svg>

<svg width="20" height="20" fill="none" xmlns="http://www.w3.org/2000/svg"><path fill-rule="evenodd" clip-rule="evenodd" d="M0 10C0 4.477 4.477 0 10 0s10 4.477 10 10-4.477 10-10 10S0 15.523 0 10Zm9.986-2.658c.812 0 1.36.352 1.673.645l1.22-1.194a4.154 4.154 0 0 0-2.893-1.126A4.323 4.323 0 0 0 6.12 8.055l1.4 1.088c.35-1.045 1.321-1.8 2.466-1.8Zm4.154 2.754c0-.356-.03-.616-.092-.886H9.986v1.608h2.384c-.048.4-.307 1.002-.884 1.406l1.365 1.06c.817-.756 1.289-1.868 1.289-3.188Zm-6.616.761A2.67 2.67 0 0 1 7.38 10c0-.299.053-.587.14-.857l-1.4-1.088A4.342 4.342 0 0 0 5.658 10c0 .698.169 1.358.462 1.945l1.404-1.088Zm2.462 3.476c1.168 0 2.149-.385 2.865-1.05l-1.365-1.059c-.366.256-.856.434-1.5.434-1.145 0-2.116-.756-2.462-1.801l-1.4 1.088a4.316 4.316 0 0 0 3.862 2.388Z" fill="#fff"/></svg>
